X:677
T: MARIA VON RETZBACH
N: E2078
O: Europa, Mitteleuropa, Deutschland, Franken
R: geistlich, Marien - Lied
M: 3/4
L: 1/8
K: G
D2 | G2G2A2 | ABB2
ce | d2B2A2 | G4
D2 | G2G2A2 | ABB2
ce | d2B2A2 | G4
Bc | d2B2de | dcB2
Ac | B2G2Bd | A4
D2 | G2G2A2 | ABB2
ce | d2B2A2 | G4

